src/com/lilithsthrone/res/statusEffects/combatBonusBatMorph.svg

<?xml version="1.0" encoding="UTF-8" standalone="no"?>
<!-- Created with Inkscape (http://www.inkscape.org/) -->

<svg
   xmlns:dc="http://purl.org/dc/elements/1.1/"
   xmlns:cc="http://creativecommons.org/ns#"
   xmlns:rdf="http://www.w3.org/1999/02/22-rdf-syntax-ns#"
   xmlns:svg="http://www.w3.org/2000/svg"
   xmlns="http://www.w3.org/2000/svg"
   xmlns:sodipodi="http://sodipodi.sourceforge.net/DTD/sodipodi-0.dtd"
   xmlns:inkscape="http://www.inkscape.org/namespaces/inkscape"
   width="100%"
   height="100%"
   viewBox="0 0 64.000001 64.000001"
   id="svg4311"
   version="1.1"
   inkscape:version="0.91 r13725"
   sodipodi:docname="combatBonusBatMorph.svg">
  <defs
     id="defs4313">
    <inkscape:path-effect
       effect="powerstroke"
       id="path-effect4155"
       is_visible="true"
       offset_points="0.92799346,1.2886104"
       sort_points="true"
       interpolator_type="Linear"
       interpolator_beta="0.2"
       start_linecap_type="zerowidth"
       linejoin_type="round"
       miter_limit="4"
       end_linecap_type="zerowidth"
       cusp_linecap_type="round" />
    <inkscape:path-effect
       effect="powerstroke"
       id="path-effect4151"
       is_visible="true"
       offset_points="0,0.5"
       sort_points="true"
       interpolator_type="CubicBezierJohan"
       interpolator_beta="0.2"
       start_linecap_type="zerowidth"
       linejoin_type="round"
       miter_limit="4"
       end_linecap_type="zerowidth"
       cusp_linecap_type="round" />
    <inkscape:path-effect
       effect="powerstroke"
       id="path-effect4147"
       is_visible="true"
       offset_points="0,0.5"
       sort_points="true"
       interpolator_type="CubicBezierJohan"
       interpolator_beta="0.2"
       start_linecap_type="zerowidth"
       linejoin_type="round"
       miter_limit="4"
       end_linecap_type="zerowidth"
       cusp_linecap_type="round" />
    <inkscape:path-effect
       effect="powerstroke"
       id="path-effect4183"
       is_visible="true"
       offset_points="0.238227,0.51804536"
       sort_points="true"
       interpolator_type="Linear"
       interpolator_beta="0.2"
       start_linecap_type="zerowidth"
       linejoin_type="round"
       miter_limit="4"
       end_linecap_type="zerowidth"
       cusp_linecap_type="round" />
    <pattern
       y="0"
       x="0"
       height="6"
       width="6"
       patternUnits="userSpaceOnUse"
       id="EMFhbasepattern" />
    <pattern
       y="0"
       x="0"
       height="6"
       width="6"
       patternUnits="userSpaceOnUse"
       id="EMFhbasepattern-1" />
  </defs>
  <sodipodi:namedview
     id="base"
     pagecolor="#ffffff"
     bordercolor="#666666"
     borderopacity="1.0"
     inkscape:pageopacity="0.0"
     inkscape:pageshadow="2"
     inkscape:zoom="1.979899"
     inkscape:cx="10.276641"
     inkscape:cy="-19.754003"
     inkscape:document-units="px"
     inkscape:current-layer="layer5"
     showgrid="false"
     units="px"
     inkscape:window-width="2560"
     inkscape:window-height="1388"
     inkscape:window-x="-8"
     inkscape:window-y="-8"
     inkscape:window-maximized="1"
     showguides="false" />
  <metadata
     id="metadata4316">
    <rdf:RDF>
      <cc:Work
         rdf:about="">
        <dc:format>image/svg+xml</dc:format>
        <dc:type
           rdf:resource="http://purl.org/dc/dcmitype/StillImage" />
        <dc:title></dc:title>
      </cc:Work>
    </rdf:RDF>
  </metadata>
  <g
     inkscape:groupmode="layer"
     id="layer5"
     inkscape:label="Stage5"
     style="display:inline;opacity:1">
    <path
       sodipodi:type="star"
       style="fill:#ff8080;fill-opacity:1;stroke:#000000;stroke-width:0.73031849;stroke-linecap:round;stroke-miterlimit:4;stroke-dasharray:none;stroke-dashoffset:0;stroke-opacity:1"
       id="path4168"
       sodipodi:sides="5"
       sodipodi:cx="1.4285713"
       sodipodi:cy="-9.5714273"
       sodipodi:r1="17.431536"
       sodipodi:r2="14.102408"
       sodipodi:arg1="0.90885469"
       sodipodi:arg2="1.5371732"
       inkscape:flatsided="true"
       inkscape:rounded="0"
       inkscape:randomized="0"
       d="M 12.142857,4.1785731 -8.3375598,4.867448 -15.321516,-14.397712 0.8425794,-26.993111 17.816495,-15.512335 Z"
       inkscape:transform-center-x="0.97927869"
       inkscape:transform-center-y="-3.2456342"
       transform="matrix(1.5645444,0.05692315,-0.03980006,1.6319874,29.685873,48.596329)" />
    <path
       inkscape:connector-curvature="0"
       id="path4196"
       d="M 32.83313,44.280322 C 30.206342,40.77802 28.705319,34.89902 19.574186,37.463266 c -0.312712,-2.9395 -1.313394,-5.065921 -5.816409,-7.129805 -0.250191,-2.376606 -0.625421,-3.064573 -3.627448,-4.503038 5.941506,-0.375254 8.505721,0 14.447261,2.376593 0.562883,2.564235 5.691295,10.632183 5.816378,2.939489 -2.564243,-0.813044 -1.125768,-3.064563 0.125073,-4.815747 0.813056,1.000673 1.56357,1.813721 1.375941,3.252189 l 1.563562,0.06257 c -0.125072,-1.125756 0.37526,-2.126428 1.501025,-3.314728 0.875595,1.1883 2.626704,3.502355 0.125074,4.878283 -0.312719,7.880327 5.566203,0.06257 5.878918,-2.814398 2.62679,-1.501008 8.693336,-3.564903 13.571659,-2.564225 -2.439162,1.375926 -3.064585,3.439822 -2.939502,4.690656 -2.564246,0.562881 -5.190952,2.564229 -5.816378,7.129812 -8.568254,-2.251534 -10.256903,2.001362 -12.94623,6.629434 z"
       style="fill:#ff2a2a;fill-opacity:1;fill-rule:evenodd;stroke:#ff2a2a;stroke-width:0.50033689px;stroke-linecap:butt;stroke-linejoin:miter;stroke-miterlimit:4;stroke-dasharray:none;stroke-opacity:1" />
    <flowRoot
       xml:space="preserve"
       id="flowRoot4156"
       style="fill:black;stroke:none;stroke-opacity:1;stroke-width:1px;stroke-linejoin:miter;stroke-linecap:butt;fill-opacity:1;font-family:sans-serif;font-style:normal;font-weight:normal;font-size:40px;line-height:125%;letter-spacing:0px;word-spacing:0px"><flowRegion
         id="flowRegion4158"><rect
           id="rect4160"
           width="42.678944"
           height="44.067905"
           x="6.5659914"
           y="11.21953" /></flowRegion><flowPara
         id="flowPara4162" /></flowRoot>    <flowRoot
       xml:space="preserve"
       id="flowRoot4168"
       style="fill:black;stroke:none;stroke-opacity:1;stroke-width:1px;stroke-linejoin:miter;stroke-linecap:butt;fill-opacity:1;font-family:sans-serif;font-style:normal;font-weight:normal;font-size:40px;line-height:125%;letter-spacing:0px;word-spacing:0px"><flowRegion
         id="flowRegion4170"><rect
           id="rect4172"
           width="63.765881"
           height="63.63961"
           x="0.25253814"
           y="-0.27095523" /></flowRegion><flowPara
         id="flowPara4174" /></flowRoot>   
    <path
       style="display:inline;opacity:1;fill:#f9f9f9;fill-opacity:1;fill-rule:evenodd;stroke:none;stroke-width:1px;stroke-linecap:butt;stroke-linejoin:miter;stroke-opacity:1"
       d="M 32.58813,6.8299461 C 43.141652,14.150158 45.68552,16.35403 56.6841,24.88989 47.793699,22.27626 34.541579,9.5048609 32.58813,6.8299461 Z"
       id="path4281-0"
       inkscape:connector-curvature="0"
       sodipodi:nodetypes="ccc" />
    <path
       style="display:inline;opacity:1;fill:#000000;fill-opacity:0.44859811;fill-rule:evenodd;stroke:none;stroke-width:1px;stroke-linecap:butt;stroke-linejoin:miter;stroke-opacity:1"
       d="M 48.528934,55.968492 C 36.350582,56.180178 24.675347,56.047986 16.557409,55.981412 13.168111,46.178694 9.9127758,35.093102 6.3878346,24.118699 11.878755,36.064798 12.7552,43.733966 21.138496,50.327266 c 6.025034,4.738571 15.106093,4.469879 27.390438,5.641226 z"
       id="path4283-0"
       inkscape:connector-curvature="0"
       sodipodi:nodetypes="cccsc" />
  </g>
</svg>

<svg xmlns="http://www.w3.org/2000/svg" viewBox="0 0 64 64">
    <path fill="#ff8080" stroke="#000" stroke-linecap="round" stroke-width=".73" d="M12.143 4.179l-20.48.688-6.985-19.265L.843-26.993l16.973 11.48z" transform="matrix(1.56454 .05692 -.0398 1.63199 29.686 48.596)"/>
    <path fill="#ff2a2a" fill-rule="evenodd" stroke="#ff2a2a" stroke-width=".5" d="M32.833 44.28c-2.627-3.502-4.128-9.381-13.259-6.817-.313-2.94-1.313-5.066-5.816-7.13-.25-2.376-.626-3.064-3.628-4.503 5.942-.375 8.506 0 14.448 2.377.562 2.564 5.69 10.632 5.816 2.94-2.564-.814-1.126-3.065.125-4.816.813 1 1.564 1.813 1.376 3.252l1.564.063c-.126-1.126.375-2.127 1.5-3.315.876 1.188 2.627 3.502.126 4.878-.313 7.88 5.566.063 5.879-2.814 2.626-1.501 8.693-3.565 13.571-2.565-2.439 1.376-3.064 3.44-2.94 4.691-2.564.563-5.19 2.564-5.816 7.13-8.568-2.252-10.257 2.001-12.946 6.63z"/>
    <path fill="#f9f9f9" fill-rule="evenodd" d="M32.588 6.83c10.554 7.32 13.098 9.524 24.096 18.06-8.89-2.614-22.142-15.385-24.096-18.06z"/>
    <path fill-opacity=".449" fill-rule="evenodd" d="M48.529 55.968c-12.178.212-23.854.08-31.972.013-3.389-9.802-6.644-20.888-10.17-31.862 5.492 11.946 6.368 19.615 14.751 26.208 6.026 4.739 15.107 4.47 27.39 5.641z"/>
</svg>
